X:2870
T:Den bruden blir aldrig jungfru mer
S:Älvdalspolska efter Isak Anders
S:Efter Jonas "Jalle" Hjalmarsson
Z:[[http://www.bluerose.karenlmyers.org/IncipitsPolskaAlvdalen4.html|Karen Myers (#2870)]]
Z:Upptecknad 6/2006
M:3/4
L:1/8
R:Polska
O:Älvdalen, Dalarna
K:D
(A |: d>)f (3ece d2 | f>a (3geg f>(A | d>)f (3ece d2 | f>a (3geg f2 | g>b ag f>d |
(3ece d2- d>(A :| d>)f a2 a2 | b>a (af) (fd) | (3def g2 g>b | (b>a) (af) fd |
|: A>(c e>)(e f3/2)(e1/4f1/4 | g3/2)(a1/4g1/4 f3/2)(g1/4f1/4 e>)(c | A>)(c e>)(e f3/2)(e1/4f1/4 |
g3/2)(a1/4g1/4 f3/2)(g1/4f1/4 e>)(f | g>)b ag f>d |1 (3ece d2- d3/2{c2d2}c/ :|2 (3ece d2- d3/2 z/ |]
